assets/logos/codesai_logo_green_white.svg

<svg width="482" height="159" viewBox="0 0 482 159" fill="none" xmlns="http://www.w3.org/2000/svg">
<path d="M136.051 37.9748L71.2603 0.579316C70.605 0.199821 69.8611 0 69.1039 0C68.3466 0 67.6027 0.199821 66.9474 0.579316L2.15657 37.9748C1.50127 38.3531 0.956941 38.8972 0.578422 39.5524C0.199903 40.2076 0.000419682 40.9509 0 41.7075V76.5887C1.75413 75.9644 3.6372 75.7913 5.47577 76.0853C7.31434 76.3793 9.04934 77.1311 10.5213 78.2714C12.3605 79.7617 13.6057 81.861 14.0316 84.1896C15.3371 90.6398 13.2774 93.5506 10.7051 95.6491L15.105 111.663L7.24315 123.171L14.9794 127.668L24.0211 114.429L19.8241 84.4508L22.938 79.896C20.534 77.7044 18.9796 74.7354 18.548 71.5111C18.1164 68.2868 18.8353 65.0135 20.5784 62.2668C22.5805 59.2058 25.7022 57.0512 29.2743 56.2648C32.8464 55.4784 36.5844 56.123 39.6869 58.0602C42.3647 59.7679 44.3722 62.3464 45.3709 65.3613C46.3696 68.3763 46.2984 71.6433 45.1696 74.612C44.0407 77.5806 41.9232 80.0694 39.1736 81.659C36.424 83.2486 33.2105 83.8418 30.0747 83.3387L27.57 87.0038L30.3261 105.174L58.892 63.3499C56.846 61.0444 55.6283 58.1217 55.4321 55.0454C55.2359 51.9692 56.0724 48.9155 57.8089 46.3687C59.8587 43.4316 62.9574 41.393 66.4659 40.6733C69.9745 39.9536 73.6254 40.6076 76.666 42.5005C79.4564 44.2793 81.5152 47.0009 82.4678 50.17C83.4204 53.3391 83.2033 56.7448 81.8561 59.7673C80.5089 62.7898 78.1211 65.228 75.1275 66.6381C72.1339 68.0482 68.7334 68.3363 65.5452 67.4502L23.6245 129.118L44.3769 122.784L62.4217 96.3647C60.5024 94.0287 59.4009 91.1284 59.2857 88.1073C59.1704 85.0861 60.0477 82.1104 61.7834 79.6349C63.8583 76.7538 66.9516 74.7698 70.4355 74.0856C73.9195 73.4014 77.5333 74.0681 80.5438 75.9505C83.3517 77.7624 85.408 80.5303 86.3318 83.7419C87.2556 86.9535 86.9843 90.391 85.5682 93.4179C84.1522 96.4448 81.6871 98.8561 78.6298 100.205C75.5724 101.554 72.1298 101.749 68.9394 100.755L49.744 128.867L28.4694 135.356L67.0441 157.598C67.6997 157.976 68.4435 158.176 69.2006 158.176C69.9576 158.176 70.7014 157.976 71.357 157.598L136.148 120.202C136.803 119.824 137.347 119.28 137.726 118.625C138.104 117.969 138.304 117.226 138.304 116.469V41.6689C138.287 40.9092 138.07 40.1675 137.675 39.5188C137.279 38.8701 136.719 38.3375 136.051 37.9748V37.9748Z" fill="#03CCAB"/>
<path d="M0.987164 90.5623C1.635 90.995 2.38043 91.2716 3.16129 91.3689C3.94214 91.4662 4.73583 91.3813 5.47591 91.1215C6.21599 90.8617 6.88108 90.4345 7.41566 89.8755C7.95023 89.3164 8.33878 88.6418 8.54887 87.9079C8.77026 87.1759 8.8032 86.4026 8.64491 85.6554C8.48662 84.9082 8.14185 84.2097 7.64064 83.6209C7.1777 83.0735 6.59488 82.6325 5.93419 82.3297C5.2735 82.0268 4.55145 81.8698 3.82032 81.8698C3.08919 81.8698 2.36714 82.0268 1.70645 82.3297C1.04576 82.6325 0.462941 83.0735 0 83.6209V89.7029C0.286999 90.0316 0.619133 90.3207 0.987164 90.5623Z" fill="#03CCAB"/>
<path d="M6.06883 97.4241C4.04039 97.7985 1.94599 97.6425 0 96.9719V116.228C0.00043897 116.998 0.209091 117.753 0.605006 118.419C1.00092 119.085 1.57015 119.638 2.25556 120.023L9.53823 109.662L6.06883 97.4241Z" fill="#03CCAB"/>
<path d="M73.045 58.0264C73.8981 57.1908 74.4598 56.1029 74.647 54.9234C74.8342 53.744 74.6371 52.5356 74.0848 51.4768C73.5325 50.418 72.6543 49.565 71.58 49.0439C70.5057 48.5227 69.2922 48.361 68.1189 48.5827C66.9456 48.8044 65.8749 49.3977 65.0647 50.2749C64.2546 51.1522 63.748 52.2669 63.62 53.4542C63.4919 54.6416 63.7493 55.8386 64.3538 56.8684C64.9584 57.8983 65.8782 58.7062 66.9772 59.173C67.989 59.6013 69.1047 59.721 70.1844 59.517C71.264 59.313 72.2592 58.7944 73.045 58.0264V58.0264Z" fill="#03CCAB"/>
<path d="M78.2439 89.6228C78.6395 88.6954 78.7758 87.6779 78.6386 86.679C78.5013 85.6801 78.0955 84.7372 77.4645 83.951C76.8335 83.1649 76.0011 82.5649 75.056 82.2152C74.1108 81.8656 73.0886 81.7793 72.0983 81.9657C71.108 82.152 70.1868 82.604 69.4331 83.2733C68.6795 83.9426 68.1216 84.8042 67.8191 85.766C67.5166 86.7278 67.4809 87.7538 67.7156 88.7344C67.9503 89.715 68.4466 90.6134 69.1518 91.3337C69.7931 91.9853 70.5848 92.4692 71.4569 92.7426C72.3291 93.016 73.255 93.0706 74.1532 92.9016C75.0514 92.7326 75.8944 92.3451 76.6077 91.7734C77.3211 91.2016 77.883 90.4631 78.2439 89.6228V89.6228Z" fill="#03CCAB"/>
<path d="M37.7185 71.3136C38.109 70.3841 38.2399 69.3659 38.0973 68.3676C37.9546 67.3694 37.5438 66.4287 36.9085 65.6459C36.2733 64.8632 35.4376 64.2677 34.4906 63.9232C33.5435 63.5787 32.5207 63.498 31.5314 63.6897C30.5421 63.8815 29.6234 64.3385 28.8734 65.0119C28.1234 65.6854 27.5702 66.55 27.273 67.5135C26.9757 68.477 26.9455 69.5032 27.1856 70.4825C27.4257 71.4619 27.9272 72.3576 28.6363 73.074C29.2812 73.722 30.0754 74.2014 30.949 74.47C31.8225 74.7387 32.7487 74.7882 33.646 74.6143C34.5432 74.4404 35.3839 74.0484 36.0941 73.4728C36.8043 72.8973 37.3621 72.1557 37.7185 71.3136V71.3136Z" fill="#03CCAB"/>
<path d="M187.686 63.8188C186.063 63.766 184.454 64.1351 183.016 64.8903C181.578 65.6454 180.361 66.7606 179.483 68.1269C177.517 70.9989 176.534 74.9573 176.534 80.002C176.534 90.4888 180.525 95.7321 188.505 95.7321C190.878 95.7369 193.24 95.3968 195.515 94.7226C197.828 94.0455 200.105 93.2495 202.335 92.338V104.793C197.459 106.873 192.2 107.902 186.899 107.814C178.675 107.814 172.369 105.429 167.982 100.66C163.594 95.8911 161.4 89.0024 161.4 79.9941C161.288 74.8569 162.377 69.7646 164.58 65.1223C166.574 60.9857 169.771 57.5476 173.752 55.2582C178.055 52.879 182.914 51.6884 187.829 51.8086C193.677 51.7982 199.451 53.1106 204.72 55.6477L200.205 67.2446C198.244 66.3215 196.227 65.525 194.164 64.86C192.072 64.1773 189.887 63.826 187.686 63.8188V63.8188Z" fill="white"/>
<path d="M263.292 79.6999C263.292 88.8725 261.043 95.8433 256.544 100.612C252.045 105.382 245.458 107.766 236.784 107.766C228.236 107.766 221.682 105.368 217.119 100.573C212.557 95.7771 210.275 88.793 210.275 79.6204C210.275 70.5485 212.543 63.62 217.079 58.835C221.615 54.05 228.207 51.6655 236.855 51.6814C245.53 51.6814 252.103 54.0659 256.576 58.835C261.048 63.6041 263.287 70.5591 263.292 79.6999ZM225.791 79.6999C225.791 90.2397 229.458 95.5095 236.792 95.5095C240.501 95.5095 243.267 94.2298 245.09 91.6704C246.913 89.1109 247.814 85.1208 247.792 79.6999C247.792 74.2579 246.878 70.2385 245.05 67.642C243.222 65.0455 240.493 63.7472 236.863 63.7472C229.482 63.7419 225.791 69.0595 225.791 79.6999Z" fill="white"/>
<path d="M316.571 78.6189C316.571 87.7173 314.067 94.7253 309.06 99.6428C304.052 104.56 297.012 107.022 287.94 107.027H270.311V52.5319H289.172C297.921 52.5319 304.675 54.768 309.433 59.2404C314.192 63.7128 316.571 70.1722 316.571 78.6189ZM301.286 79.1435C301.286 74.1465 300.298 70.4372 298.321 68.0156C296.345 65.5939 293.343 64.3884 289.315 64.399H285.031V94.9293H288.33C292.802 94.9293 296.082 93.631 298.17 91.0345C300.258 88.4379 301.297 84.4717 301.286 79.1355V79.1435Z" fill="white"/>
<path d="M355.941 107.027H323.582V52.5319H355.941V64.3513H338.311V72.9278H354.637V84.7473H338.311V95.0406H355.941V107.043V107.027Z" fill="white"/>
<path d="M401.12 90.4701C401.174 93.6611 400.278 96.796 398.545 99.4759C396.719 102.19 394.142 104.314 391.129 105.588C387.535 107.113 383.658 107.856 379.755 107.766C376.691 107.806 373.632 107.54 370.622 106.971C367.965 106.395 365.387 105.501 362.943 104.309V91.1855C365.729 92.6179 368.66 93.7477 371.687 94.5557C374.407 95.3182 377.215 95.7244 380.041 95.7639C382.229 95.7639 383.832 95.3849 384.85 94.6272C385.325 94.3028 385.713 93.8662 385.979 93.3559C386.245 92.8457 386.382 92.2777 386.376 91.7022C386.39 91.0011 386.175 90.3145 385.764 89.7468C385.213 89.0661 384.542 88.4922 383.784 88.0537C382.878 87.4814 380.462 86.3131 376.535 84.5485C373.672 83.3465 370.983 81.7666 368.539 79.8509C366.831 78.4388 365.471 76.6518 364.565 74.6288C363.66 72.4187 363.221 70.0454 363.277 67.6579C363.277 62.6397 365.103 58.7264 368.754 55.9179C372.405 53.1094 377.426 51.7052 383.816 51.7052C389.782 51.7754 395.666 53.1082 401.08 55.6159L396.566 66.9902C391.473 64.6533 387.075 63.4849 383.371 63.4849C381.458 63.4849 380.067 63.8214 379.198 64.4943C378.796 64.7747 378.467 65.148 378.24 65.5825C378.013 66.0171 377.895 66.5 377.895 66.9902C377.922 67.5664 378.087 68.1277 378.376 68.627C378.665 69.1263 379.07 69.5489 379.556 69.8596C380.663 70.7021 383.665 72.2442 388.561 74.4856C393.256 76.6053 396.518 78.8733 398.346 81.2896C400.266 83.9563 401.242 87.1866 401.12 90.4701V90.4701Z" fill="#03CCAB"/>
<path d="M466.282 106.916V52.4047H481.082V106.908H466.282V106.916Z" fill="#03CCAB"/>
<path d="M442.332 51.7446H422.683L404.902 106.47H421.086L423.844 96.2563H441.553L444.24 106.47H460.343L442.332 51.7446ZM430.838 86.3764C433.946 81.5516 432.992 71.8941 432.992 71.8941C432.889 75.8127 428.867 81.345 426.991 83.7216C425.322 81.7503 423.248 78.2609 425.934 74.7715C432.69 66.0282 433.946 64.6371 434.789 63.1031C434.884 62.9282 435.162 63.0236 435.25 63.1984C437.392 67.6377 438.635 72.4569 438.906 77.3786C439.288 84.572 432.698 86.1061 430.838 86.3843V86.3764Z" fill="#03CCAB"/>
</svg>

<svg width="482" height="159" fill="none" xmlns="http://www.w3.org/2000/svg"><path d="M136.051 37.975 71.261.579a4.303 4.303 0 0 0-4.314 0L2.157 37.975A4.313 4.313 0 0 0 0 41.708v34.88a11.103 11.103 0 0 1 10.521 1.683 9.913 9.913 0 0 1 3.51 5.919c1.306 6.45-.754 9.36-3.326 11.46l4.4 16.013-7.862 11.508 7.736 4.497 9.042-13.239-4.197-29.978 3.114-4.555a13.83 13.83 0 0 1-2.36-17.63 13.983 13.983 0 0 1 19.109-4.206 13.81 13.81 0 0 1-9.612 25.279l-2.505 3.665 2.756 18.17L58.892 63.35a13.838 13.838 0 0 1-1.083-16.981A13.983 13.983 0 0 1 76.666 42.5a13.81 13.81 0 0 1-11.12 24.95l-41.922 61.667 20.753-6.334 18.045-26.42a13.838 13.838 0 0 1-.639-16.73 13.983 13.983 0 0 1 18.76-3.683 13.82 13.82 0 0 1-11.604 24.804l-19.195 28.112-21.275 6.489 38.575 22.242a4.319 4.319 0 0 0 4.313 0l64.791-37.396a4.316 4.316 0 0 0 2.156-3.733v-74.8a4.315 4.315 0 0 0-2.253-3.694Z" fill="#03CCAB"/><path d="M.987 90.562c.648.433 1.393.71 2.174.807.781.097 1.575.012 2.315-.248a4.951 4.951 0 0 0 1.94-1.245 4.734 4.734 0 0 0 1.133-1.968 4.53 4.53 0 0 0 .096-2.253 4.615 4.615 0 0 0-1.004-2.034 4.914 4.914 0 0 0-1.707-1.291 5.075 5.075 0 0 0-4.228 0A4.914 4.914 0 0 0 0 83.62v6.083c.287.329.62.618.987.86ZM6.069 97.424A11.974 11.974 0 0 1 0 96.972v19.256c0 .77.21 1.525.605 2.191a4.454 4.454 0 0 0 1.65 1.604l7.283-10.361-3.47-12.238ZM73.045 58.026a5.564 5.564 0 1 0-7.787-7.95 5.564 5.564 0 0 0 7.787 7.95ZM78.244 89.623a5.57 5.57 0 0 0-3.188-7.408 5.56 5.56 0 0 0-7.237 3.551 5.572 5.572 0 0 0 1.333 5.568 5.574 5.574 0 0 0 9.092-1.711ZM37.718 71.314a5.572 5.572 0 0 0-3.227-7.39 5.562 5.562 0 0 0-7.218 3.59 5.57 5.57 0 0 0 1.363 5.56 5.574 5.574 0 0 0 9.082-1.76Z" fill="#03CCAB"/><path d="M187.686 63.819a9.387 9.387 0 0 0-8.203 4.308c-1.966 2.872-2.949 6.83-2.949 11.875 0 10.487 3.991 15.73 11.971 15.73a24.5 24.5 0 0 0 7.01-1.01 70.02 70.02 0 0 0 6.82-2.384v12.455a37.741 37.741 0 0 1-15.436 3.021c-8.224 0-14.53-2.385-18.917-7.154-4.388-4.769-6.582-11.658-6.582-20.666a33.01 33.01 0 0 1 3.18-14.872 22.8 22.8 0 0 1 9.172-9.864 27.694 27.694 0 0 1 14.077-3.45 38.773 38.773 0 0 1 16.891 3.84l-4.515 11.597a50.714 50.714 0 0 0-6.041-2.385 21.1 21.1 0 0 0-6.478-1.041ZM263.292 79.7c0 9.172-2.249 16.143-6.748 20.912-4.499 4.77-11.086 7.154-19.76 7.154-8.548 0-15.102-2.398-19.665-7.193-4.562-4.796-6.844-11.78-6.844-20.953 0-9.072 2.268-16 6.804-20.785 4.536-4.785 11.128-7.17 19.776-7.154 8.675 0 15.248 2.385 19.721 7.154 4.472 4.77 6.711 11.724 6.716 20.865Zm-37.501 0c0 10.54 3.667 15.81 11.001 15.81 3.709 0 6.475-1.28 8.298-3.84 1.823-2.56 2.724-6.55 2.702-11.97 0-5.442-.914-9.462-2.742-12.058-1.828-2.596-4.557-3.895-8.187-3.895-7.381-.005-11.072 5.313-11.072 15.953ZM316.571 78.619c0 9.098-2.504 16.106-7.511 21.024-5.008 4.917-12.048 7.379-21.12 7.384h-17.629V52.532h18.861c8.749 0 15.503 2.236 20.261 6.708 4.759 4.473 7.138 10.932 7.138 19.379Zm-15.285.525c0-4.998-.988-8.707-2.965-11.128-1.976-2.422-4.978-3.628-9.006-3.617h-4.284v30.53h3.299c4.472 0 7.752-1.298 9.84-3.895 2.088-2.596 3.127-6.562 3.116-11.899v.008ZM355.941 107.027h-32.359V52.532h32.359v11.82h-17.63v8.576h16.326v11.82h-16.326V95.04h17.63v12.002-.016Z" fill="#fff"/><path d="M401.12 90.47a16.083 16.083 0 0 1-2.575 9.006 16.846 16.846 0 0 1-7.416 6.112 27.496 27.496 0 0 1-11.374 2.178 45.936 45.936 0 0 1-9.133-.795 33.903 33.903 0 0 1-7.679-2.662V91.186a43.86 43.86 0 0 0 8.744 3.37 32.638 32.638 0 0 0 8.354 1.208c2.188 0 3.791-.38 4.809-1.137a3.497 3.497 0 0 0 1.526-2.925 3.225 3.225 0 0 0-.612-1.955 7.16 7.16 0 0 0-1.98-1.693c-.906-.573-3.322-1.74-7.249-3.505a34.795 34.795 0 0 1-7.996-4.698 14.427 14.427 0 0 1-3.974-5.222 17.324 17.324 0 0 1-1.288-6.971c0-5.018 1.826-8.932 5.477-11.74 3.651-2.809 8.672-4.213 15.062-4.213a42.26 42.26 0 0 1 17.264 3.91l-4.514 11.375c-5.093-2.337-9.491-3.505-13.195-3.505-1.913 0-3.304.336-4.173 1.01a3.049 3.049 0 0 0-1.303 2.495 3.604 3.604 0 0 0 1.661 2.87c1.107.842 4.109 2.384 9.005 4.626 4.695 2.12 7.957 4.387 9.785 6.804a14.773 14.773 0 0 1 2.774 9.18ZM466.282 106.916V52.405h14.8v54.503h-14.8v.008ZM442.332 51.745h-19.649l-17.781 54.725h16.184l2.758-10.214h17.709l2.687 10.214h16.103l-18.011-54.725Zm-11.494 34.631c3.108-4.824 2.154-14.482 2.154-14.482-.103 3.919-4.125 9.451-6.001 11.828-1.669-1.972-3.743-5.461-1.057-8.95 6.756-8.744 8.012-10.135 8.855-11.669.095-.175.373-.08.461.095a37.357 37.357 0 0 1 3.656 14.18c.382 7.194-6.208 8.728-8.068 9.006v-.008Z" fill="#03CCAB"/></svg>
